dist/svgs/crypto-icons/icons/ybc.svg

<?xml version="1.0" encoding="UTF-8" standalone="yes"?>
<svg xmlns="http://www.w3.org/2000/svg" xmlns:xlink="http://www.w3.org/1999/xlink" width="512px" height="512px" viewBox="0 0 384 384" version="1.1">
  <g id="surface1">
    <path style=" stroke:none;fill-rule:nonzero;fill:rgb(0%,0%,0%);fill-opacity:1;" d="M 145.789062 265.988281 L 238.371094 265.988281 L 238.371094 377.882812 C 223.085938 381.703125 207.390625 383.628906 191.632812 383.621094 C 85.601562 383.621094 -0.355469 297.664062 -0.355469 191.632812 C -0.355469 111.964844 48.175781 43.632812 117.28125 14.578125 L 117.28125 237.550781 Z M 145.789062 265.988281 "/>
    <path style=" stroke:none;fill-rule:nonzero;fill:rgb(0%,0%,0%);fill-opacity:1;" d="M 265.988281 145.71875 L 265.988281 368.6875 C 335.097656 339.632812 383.621094 271.304688 383.621094 191.632812 C 383.621094 85.601562 297.664062 -0.355469 191.632812 -0.355469 C 175.511719 -0.355469 159.859375 1.640625 144.898438 5.382812 L 144.898438 117.28125 L 237.484375 117.28125 Z M 265.988281 145.71875 "/>
  </g>
</svg>

<svg xmlns="http://www.w3.org/2000/svg" viewBox="0 0 384 384"><path d="M145.79 265.988h92.581v111.895a192.347 192.347 0 01-46.738 5.738C85.602 383.621-.355 297.664-.355 191.633c0-79.668 48.53-148 117.636-177.055v222.973zm0 0"/><path d="M265.988 145.719v222.969c69.11-29.055 117.633-97.383 117.633-177.055 0-106.031-85.957-191.988-191.988-191.988a192.367 192.367 0 00-46.735 5.738V117.28h92.586zm0 0"/></svg>
